actions/24/go-up-symbolic.svg

<?xml version="1.0" encoding="UTF-8" standalone="no"?>
<svg
   xmlns:dc="http://purl.org/dc/elements/1.1/"
   xmlns:cc="http://creativecommons.org/ns#"
   xmlns:rdf="http://www.w3.org/1999/02/22-rdf-syntax-ns#"
   xmlns:svg="http://www.w3.org/2000/svg"
   xmlns="http://www.w3.org/2000/svg"
   id="svg6"
   version="1.1"
   width="24"
   height="24">
  <metadata
     id="metadata12">
    <rdf:RDF>
      <cc:Work
         rdf:about="">
        <dc:format>image/svg+xml</dc:format>
        <dc:type
           rdf:resource="http://purl.org/dc/dcmitype/StillImage" />
        <dc:title></dc:title>
      </cc:Work>
    </rdf:RDF>
  </metadata>
  <defs
     id="defs10" />
  <path
     id="path873-5-3-3"
     style="opacity:1;fill:#555761;stroke:none;stroke-width:4;stroke-linecap:round;stroke-linejoin:round;stop-color:#000000"
     d="m 19,10.99974 c 0,0.554 -0.462541,0.865639 -1,1 h -4 v 7.999978 c 0,0.554 -0.446,1 -1,1 h -3 c -0.554,0 -1,-0.446 -1,-1 V 11.99974 H 5 c -0.554,0 -1,-0.446 -1,-1 0,-0.298584 0.129747,-0.565122 0.335938,-0.748047 L 10.814453,3.273437 C 10.993548,3.104354 11.23426,3 11.5,3 c 0.265739,0 0.506451,0.104355 0.685546,0.273437 l 6.478516,6.978256 C 18.870252,10.434618 19,10.701156 19,10.99974 Z" />
</svg>

<svg
        xmlns='http://www.w3.org/2000/svg'
        xmlns:svg='http://www.w3.org/2000/svg'
        id='svg6'
        width='24'
        height='24'>
  <path
          id='path873-5-3-3'
          opacity='1'
          fill='url(#gpa:foreground) #555761'
          fill-opacity='1'
          fill-rule='nonzero'
          stroke='none'
          stroke-width='4'
          stroke-linecap='round'
          stroke-linejoin='round'
          d='M 19 10.9997 C 19 11.5537, 18.5375 11.8654, 18 11.9997 L 14 11.9997 L 14 19.9997 C 14 20.5537, 13.554 20.9997, 13 20.9997 L 10 20.9997 C 9.446 20.9997, 9 20.5537, 9 19.9997 L 9 11.9997 L 5 11.9997 C 4.446 11.9997, 4 11.5537, 4 10.9997 C 4 10.7012, 4.12975 10.4346, 4.33594 10.2517 L 10.8145 3.27344 C 10.9935 3.10435, 11.2343 3, 11.5 3 C 11.7657 3, 12.0065 3.10436, 12.1855 3.27344 L 18.6641 10.2517 C 18.8703 10.4346, 19 10.7012, 19 10.9997 Z'
          class="foreground">
  </path>
</svg>
